svgs/light/square-6.svg

<svg xmlns="http://www.w3.org/2000/svg" viewBox="0 0 448 512"><!-- Font Awesome Pro 6.0.0-alpha2 by @fontawesome - https://fontawesome.com License - https://fontawesome.com/license (Commercial License) --><path d="M384 32H64C28.654 32 0 60.654 0 96V416C0 451.346 28.654 480 64 480H384C419.346 480 448 451.346 448 416V96C448 60.654 419.346 32 384 32ZM416 416C416 433.645 401.645 448 384 448H64C46.355 448 32 433.645 32 416V96C32 78.355 46.355 64 64 64H384C401.645 64 416 78.355 416 96V416ZM233.404 192.951L281.594 156.812C288.656 151.5 290.094 141.469 284.812 134.406C281.656 130.219 276.844 128 272 128C268.656 128 265.281 129.031 262.406 131.188L172.812 198.406C131.184 229.604 128 277.652 128 288C128 340.938 171.062 384 224 384S320 340.938 320 288C320 238.283 281.877 197.756 233.404 192.951ZM224 352C188.654 352 160 323.348 160 288C160 252.654 188.654 224 224 224S288 252.654 288 288C288 323.348 259.346 352 224 352Z"/></svg>

<svg xmlns="http://www.w3.org/2000/svg" viewBox="0 0 448 512"><!--! Font Awesome Pro 6.0.0-alpha3 by @fontawesome - https://fontawesome.com License - https://fontawesome.com/license (Commercial License) --><path d="M384 32H64C28.65 32 0 60.65 0 96v320c0 35.35 28.65 64 64 64h320c35.35 0 64-28.65 64-64V96C448 60.65 419.3 32 384 32zM416 416c0 17.64-14.36 32-32 32H64c-17.64 0-32-14.36-32-32V96c0-17.64 14.36-32 32-32h320c17.64 0 32 14.36 32 32V416zM233.4 192.1l48.19-36.14c7.062-5.312 8.5-15.34 3.219-22.41C281.7 130.2 276.8 128 272 128c-3.344 0-6.719 1.031-9.594 3.188L172.8 198.4C131.2 229.6 128 277.7 128 288c0 52.94 43.06 96 96 96s96-43.06 96-96C320 238.3 281.9 197.8 233.4 192.1zM224 352c-35.35 0-64-28.65-64-64c0-35.35 28.65-64 64-64s64 28.65 64 64C288 323.3 259.3 352 224 352z"/></svg>
